!!!COM:	L van Beethoven
!!!OTL:	Scherzo
**kern	**dynam
*I"Violin II	*
*clefG2	*
*k[b-e-]	*
*B-:	*
*M2/2	*
=1	=1
8B-L	fp
8f	.
8d	.
8f	.
8dL	.
8f	.
8d	.
8f	.
=2	=2
8dL	.
8f	.
8d	.
8f	.
8dL	.
8f	.
8d	.
8f	.
=3	=3
8dL	fp
8f	.
8d	.
8f	.
8dL	.
8f	.
8d	.
8f	.
=4	=4
8dL	.
8f	.
8d	.
8f	.
8dL	.
8f	.
8d	.
8f	.
=5	=5
8dL	.
8f	.
8d	.
8f	.
8dL	.
8f	.
8d	.
8f	.
=6	=6
8e-L	.
8f	.
8e-	.
8f	.
8e-L	.
8f	.
8e-	.
8f	.
=7	=7
8dL	.
8f	.
8d	.
8f	.
8dL	.
8f	.
8d	.
8f	.
=8	=8
8e-L	.
8f	.
8e-	.
8f	.
8e-L	.
8f	.
8e-	.
8f	.
=9	=9
8dL	.
8f	.
8d	.
8f	.
8dL	.
8f	.
8d	.
8f	.
=10	=10
8e-L	.
8f	.
8e-	.
8f	.
8e-L	.
8f	.
8e-	.
8f	.
=11	=11
8dL	.
8f	.
8d	.
8f	.
8dL	.
8b-	.
8d	.
8b-	.
=12	=12
8dL	.
8b-	.
8d	.
8b-	.
8gL	.
8b-	.
8g	.
8b-	.
=13	=13
8aL	.
8cc	.
8a	.
8cc	.
8b-L	pp
8cc	.
8b-	.
8cc	.
=14	=14
8aL	.
8cc	.
8a	.
8cc	.
8gL	.
8cc	.
8g	.
8cc	.
=15	=15
8aL	.
8cc	.
8a	.
8cc	.
8b-L	.
8cc	.
8b-	.
8cc	.
=16	=16
8aL	.
8cc	.
8a	.
8cc	.
8gL	.
8cc	.
8g	.
8cc	.
=17	=17
!LO:TX:t=cresc.	!
8aL	<
8cc	.
8g	.
8cc	.
8aL	.
8cc	.
8g	.
8cc	.
=18	=18
4a	f
4r	.
2r	.
=19	=19
1r	.
=20	=20
1r	.
=21	=21
2.B-	fp
(qqg	.
8f	.
16e	.
16f)	.
=22	=22
4d	.
4b-	.
4f	.
4dd	.
=23	=23
2b-	.
4r	.
(qqcc	.
8b-	.
16a	.
16b-)	.
=24	=24
4cc	.
4f	.
4cc	.
4f	.
=25	=25
(2dd	.
4b-)	.
4r	.
=26	=26
1r	.
=27	=27
2r	.
4r	.
(qqcc	.
8b-	.
16a	.
16b-)	.
=28	=28
4cc	.
4f	.
4cc	.
4f	.
=29	=29
!LO:TX:t=cresc.	!
(2dd	<
2b-	.
=30	=30
2g	.
2e)	.
=31	=31
(2c#	.
2d	.
=32	=32
2.f	.
4d)	.
=33	=33
4e	[
2g	sf
4g	.
=34	=34
4g	.
2g	sf
4g	.
=35	=35
4g	.
2ee	.
(8dd	.
8ee)	.
=36	=36
8ffL	.
8ee	.
8dd	.
8cc	.
8bL	.
8a	.
8g	.
8f	.
=37	=37
4e	f
2G 2e	sf
4G 4e	.
=38	=38
4G 4f	.
2G 2f	sf
4G 4f	.
=39	=39
4G 4e	.
2ee	sf
(8dd	.
8ee)	.
=40	=40
8ffL	.
8ee	.
8dd	.
8cc	.
8bL	.
8a	.
8g	.
8f	.
=41	=41
4e	.
4b	.
4cc	.
4b	.
=42	=42
4cc	.
4ff	.
4ee	.
4bb	.
=43	=43
4ccc	.
4r	.
4cc	f
4r	.
=44	=44
4c	.
4r	.
2r	.
=45	=45
4c	p
4r	.
4.c	.
8c	.
=46	=46
[2c	.
4.c	.
8c	.
=47	=47
4.c	.
8c	.
4.c	.
8c	.
=48	=48
(4c	.
4d-	.
4c	>
4B-)	.
=49	=49
4A-	]
4r	.
4.a-	.
8a-	.
=50	=50
[2a-	.
4.a-	.
8a-	.
=51	=51
qqcc	.
4.b-	.
8a-	.
qqcc	.
4.b-	.
8a-	.
=52	=52
2.g	<
4e	>
=53	=53
4f	]
4r	.
4.f	.
8f	.
=54	=54
[2f	sf
4.f	>
8b-	]
=55	=55
4a-	p
4r	.
4g	.
4r	.
=56	=56
1a-	pp
=57	=57
!LO:TX:t=cresc.	!
4d-	.
4r	.
4.d-	.
8d-	.
=58	=58
[2d-	sf
4.d-	.
8g-	]
=59	=59
4f	p
4r	.
4e	.
4r	.
=60	=60
!LO:TX:t=decresc.	!
[2f	.
4.f	.
8g	.
=61	=61
4f	.
4r	.
4e	.
4r	.
=62	=62
[2f	pp
4.f	.
8g	.
=63	=63
!LO:TX:t=cresc.	!
4f	.
4r	.
4e	.
4r	.
=64	=64
1f	sf
=65	=65
1g	sf
=66	=66
2.a	sf
4f	.
=67	=67
4r	.
4d	.
4r	.
4B-	.
=68	=68
4r	.
(4ff	p
4ee	.
4ff)	.
=69	=69
4r	.
(4g	.
4f#	.
4g)	.
=70	=70
4r	.
!LO:TX:t=cresc.	!
(4a	.
4g	.
4f)	.
=71	=71
4e	.
4ee	.
4r	.
4dd	.
=72	=72
4r	.
4cc	.
4r	.
4b-	.
=73	=73
4r	.
4a	.
4r	.
4f	.
=74	=74
4e	p
4r	.
2r	.
=75	=75
4A 4f	.
4r	.
2r	.
=76	=76
4d 4dd	.
4r	.
2r	.
=77	=77
!LO:TX:t=cresc.	!
8dL	.
8cc#	.
8dd	.
8ee	.
8ffL	.
8ff#	.
8gg	.
8aa-	.
=78	=78
[2aa	f
8aaL	.
(8ccc	.
8aa	.
8ff)	.
=79	=79
1eet	sf
=80	=80
4ff	.
4r	.
2r	.
=81	=81
1r	.
=82	=82
8fL	p
(8c	.
8B	.
8c)	.
8AL	.
8c	.
8A	.
8c	.
=83	=83
8B-L	.
8c	.
8e	.
8c	.
8B-L	.
8c	.
8e	.
8c	.
=84	=84
8AL	.
8c	.
8f	.
8c	.
8AL	.
8c	.
8c	.
8c	.
=85	=85
!LO:TX:t=cresc.	!
4b-	<
4g	.
4b-	.
4g	.
=86	=86
(2cc	sf
4a)	.
(8a	.
8f)	.
=87	=87
8eL	.
8f	.
8g	.
8a	.
8b-L	.
8cc	.
8dd	.
8ee	.
=88	=88
8ffL	f
8aa	.
8aa	.
8gg	.
8ffL	.
8aa	.
8aa	.
8gg	.
=89	=89
8ffL	.
8aa	.
8aa	.
8gg	.
8ffL	.
8aa	.
8aa	.
8gg	.
=90	=90
4ff	.
4r	ff
4G 4e 4cc	.
4r	.
=91	=91
4A 4f 4cc	.
4r	.
2r	.
=92:|!	=92:|!
4A 4f 4cc	.
4r	.
4r	.
(qqd	f
8c	.
16B	.
16c)	.
=93!|:	=93!|:
4A	.
4f	.
4c	.
4a	.
=94	=94
2.f	sf
4r	.
=95	=95
1r	.
=96	=96
1r	.
=97	=97
2r	.
4r	.
(qqdd	p
8cc	.
16b	.
16cc)	.
=98	=98
4a	.
4r	.
2r	.
=99	=99
2r	.
4r	.
(qqdd	pp
8cc	.
16b	.
16cc)	.
=100	=100
4a	.
4r	.
2r	.
=101	=101
!LO:TX:t=cresc.	!
(1c	<
=102	=102
1c#)	.
=103	=103
2.A 2.d	fp
4r	.
=104	=104
1r	.
=105	=105
!LO:TX:t=cresc.	!
4A	.
4f#	.
4d	.
4a	.
=106	=106
4f#	.
4dd	.
4a	.
4ff#	.
=107	=107
2.ff#	fp
4r	.
=108	=108
1r	.
=109	=109
!LO:TX:t=cresc.	!
4A	.
4f#	<
4c	.
4a	.
=110	=110
4f#	.
4ee-	.
4a	.
4ff#	.
=111	=111
4gg	f
4r	[
2r	.
=112	=112
4a 4aa	sf
4r	.
2r	.
=113	=113
1r	.
=114	=114
1r	.
=115	=115
1r	.
=116	=116
1r	.
=117	=117
1r	.
=118	=118
2r	.
4r	.
(8a	p
8g)	.
=119	=119
8f#L	.
8g	.
8a	.
8b-	.
8ccL	.
8dd	.
8ee	.
8ff#	.
=120	=120
(qqaa	.
8ggL	.
8ff#	.
8gg	.
8aa)	.
4bb-	.
4cc	f
=121	=121
4cc	.
4cc	.
4cc	.
4cc	.
=122	=122
(2a	.
4f)	.
4r	.
=123	=123
1r	.
=124	=124
2r	.
4r	.
(8g	p
8f)	.
=125	=125
8eL	.
8f	.
8g	.
8a-	.
8b-L	.
8cc	.
8dd	.
8ee	.
=126	=126
(qqgg	.
8ffL	.
8ee	.
8ff	.
8gg)	.
4aa-	.
4b-	f
=127	=127
4b-	.
4b-	.
4b-	.
4b-	.
=128	=128
(2g	.
4e-)	.
4r	.
=129	=129
1r	.
=130	=130
2r	.
4r	.
(8f	p
8e-)	.
=131	=131
8dL	.
8e-	.
8f	.
8g-	.
8a-L	.
8b-	.
8cc	.
8dd	.
=132	=132
(qqff	.
8ee-L	.
8dd	.
8ee-	.
8ff)	.
4gg-	.
!LO:TX:t=cresc.	!
4a-	<
=133	=133
4a-	.
4a-	.
4a-	.
4a-	.
=134	=134
(2f	.
4d-)	[
4r	.
=135	=135
1r	.
=136	=136
2r	.
4r	.
4ff	ff
=137	=137
4ff	.
4ff	.
4ff	.
4ff	.
=138	=138
8dd-L	.
8cc	.
8dd-	.
8ee-	.
8ffL	sf
8ee-	.
8dd-	.
8cc	.
=139	=139
8b-L	.
8a-	.
8g-	.
8f	.
4e	.
4e	.
=140	=140
2.f	fp
4r	.
=141	=141
1r	.
=142	=142
2.f	.
(qqg	.
8f	.
16e	.
16f)	.
=143	=143
4g	.
4c	.
4g	.
4c	.
=144	=144
4a	pp
4f	.
4a	.
4f	.
=145	=145
4b-	.
4e	.
4b-	.
4e	.
=146	=146
4cc	.
4f	.
4cc	.
4f	.
=147	=147
4dd-	.
4f	.
4dd	.
4f	.
=148	=148
(4ee-	<
4dd	.
4ee-	.
4b	.
=149	=149
4cc	>
4b	.
4cc	]
4dd)	.
=150	=150
(4ee-	<
4dd	.
4ee-	.
4b	.
=151	=151
4cc	>
4b	.
4cc	]
4dd	.
=152	=152
4ee-)	.
4r	.
(8ffL	.
8gg	.
8ff	.
8gg	.
=153	=153
8aaL	.
8bb-	.
8aa	.
8bb-)	.
4ccc	.
4ccc	.
=154	=154
4ccc	.
4r	.
2r	.
=155	=155
1r	.
=156	=156
2r	.
(8aL	p
8b-	.
8a	.
8b-	.
=157	=157
8ccL	.
8dd	.
8cc	.
8dd)	.
4ee-	.
4ee-	.
=158	=158
4ee-	.
4r	.
2r	.
=159	=159
1r	.
=160	=160
1r	.
=161	=161
1r	.
=162	=162
(2.ee-	.
8dd	.
8ee-	.
=163	=163
4ff	.
4ee-	.
4dd	.
4cc)	.
=164	=164
(2b-	.
2a)	.
=165	=165
2a	.
2r	.
=166	=166
(2.ee-	.
8dd	.
8ee-	.
=167	=167
8ddL	.
8ee-	.
8dd	.
8ee-	.
8ffL	.
8ee-	.
8dd	.
8cc)	.
=168	=168
!LO:TX:t=cresc.	!
(4b-	.
4a)	.
2r	.
=169	=169
(4cc	.
4b-)	.
2r	.
=170	=170
(4dd	.
4cc#)	.
2r	.
=171	=171
!LO:TX:t=decresc	!
(4ee-	.
4dd)	.
2r	.
=172	=172
2r	.
2cc	p
=173	=173
1r	.
=174	=174
2r	.
[2f	pp
=175	=175
1f	.
=176	=176
8B-L	fp
8f	.
8d	.
8f	.
8dL	.
8f	.
8d	.
8f	.
=177	=177
8dL	.
8f	.
8d	.
8f	.
8dL	.
8f	.
8d	.
8f	.
=178	=178
8dL	fp
8f	.
8d	.
8f	.
8dL	.
8f	.
8d	.
8f	.
=179	=179
8dL	.
8f	.
8d	.
8f	.
8dL	.
8f	.
8d	.
8f	.
=180	=180
8dL	.
8f	.
8d	.
8f	.
8dL	.
8f	.
8d	.
8f	.
=181	=181
8e-L	p
8f	.
8e-	.
8f	.
8e-L	.
8f	.
8e-	.
8f	.
=182	=182
8dL	.
8f	.
8d	.
8f	.
8dL	.
8f	.
8d	.
8f	.
=183	=183
8e-L	.
8f	.
8e-	.
8f	.
8e-L	.
8f	.
8e-	.
8f	.
=184	=184
8dL	.
8f	.
8d	.
8f	.
8dL	.
8f	.
8d	.
8f	.
=185	=185
8e-L	.
8f	.
8e-	.
8f	.
8e-L	.
8f	.
8e-	.
8f	.
=186	=186
8dL	.
8f	.
8d	.
8f	.
8dL	.
8b-	.
8d	.
8b-	.
=187	=187
8dL	.
8b-	.
8d	.
8b-	.
8eL	.
8b-	.
8e	.
8b-	.
=188	=188
8aL	.
8cc	.
8a	.
8cc	.
8b-L	pp
8cc	.
8b-	.
8cc	.
=189	=189
8aL	.
8cc	.
8a	.
8cc	.
8gL	.
8cc	.
8g	.
8cc	.
=190	=190
8aL	.
8cc	.
8a	.
8cc	.
8b-L	.
8cc	.
8b-	.
8cc	.
=191	=191
8aL	.
8cc	.
8a	.
8cc	.
8gL	.
8cc	.
8g	.
8cc	.
=192	=192
!LO:TX:t=cresc.	!
8aL	<
8cc	.
8g	.
8cc	.
8aL	.
8cc	.
8g	.
8cc	.
=193	=193
4a	f
4r	.
2r	.
=194	=194
1r	.
=195	=195
1r	.
=196	=196
4r	.
(4dd	f
4ee-)	.
(4dd	sf
=197	=197
4ee-)	.
(qqcc	.
8b-	.
16a	.
16b-)	.
4e-	.
(4dd	sf
=198	=198
4ee-)	.
(4dd	sf
4ee-)	.
(4dd	sf
=199	=199
4ee-)	p
4b-	.
4r	.
4b-	.
=200	=200
4r	.
4b-	.
4r	.
4b-	.
=201	=201
4r	.
4b-	.
4r	.
4b-	.
=202	=202
4r	.
4cc	.
4r	.
4a-	.
=203	=203
(2.e-	f
8d	.
8e-)	.
=204	=204
(2.f	.
8e-	.
8f)	.
=205	=205
2.g-	.
(8g-	.
8f)	.
=206	=206
4e-	.
(8e-	.
8d-)	.
4c	.
(8c	.
8B-)	.
=207	=207
4A	.
2c	sf
4c	.
=208	=208
4c	.
2c	sf
4c	.
=209	=209
4c	.
2a	sf
(8g	.
8a)	.
=210	=210
8b-L	.
8a	.
8g	.
8f	.
8eL	.
8d	.
8c	.
8B-	.
=211	=211
4A	.
2f 2a	sf
4f 4a	.
=212	=212
4g 4b-	.
2g 2b-	sf
4g 4b-	.
=213	=213
4f 4a	.
2aa	sf
(8gg	.
8aa)	.
=214	=214
8bb-L	.
8aa	.
8gg	.
8ff	.
8eeL	.
8dd	.
8cc	.
8b-	.
=215	=215
4a	.
4b-	.
4a	.
4b-	.
=216	=216
4a	.
4ee	.
4ff	.
4ee	.
=217	=217
4ff	.
4r	.
4ff	f
4r	.
=218	=218
4f	.
4r	.
2r	.
=219	=219
4f	p
4r	.
4.b-	.
8b-	.
=220	=220
[2b-	.
4.b-	.
8b-	.
=221	=221
qqdd	.
4.cc	.
8b-	.
qqdd	.
4.cc	.
8b-	.
=222	=222
1a	<
=223	=223
4b-	[
4r	.
4.dd-	.
8dd-	.
=224	=224
[2dd-	.
4.dd-	.
8dd-	.
=225	=225
qqff	.
4.ee-	.
8dd-	.
qqff	.
4.ee-	.
8dd-	.
=226	=226
(2.cc	<
4a)	>
=227	=227
4b-	]
4r	.
4.b-	.
8b-	.
=228	=228
[2b-	sf
4.b-	>
8b-	]
=229	=229
4dd-	p
4r	.
4cc	.
4r	.
=230	=230
1dd-	pp
=231	=231
!LO:TX:t=cresc.	!
4g-	<
4r	.
4.g-	.
8g-	.
=232	=232
[2g-	sf
4.g-	[
8cc-	.
=233	=233
4b-	p
4r	.
4a	.
4r	.
=234	=234
!LO:TX:t=decresc	!
[2b-	.
4.b-	.
8cc-	.
=235	=235
4b-	.
4r	.
4a	.
4r	.
=236	=236
[2b-	pp
4.b-	.
8cc	.
=237	=237
!LO:TX:t=cresc.	!
4b-	.
4r	.
4a	.
4r	.
=238	=238
1b-	sf
=239	=239
1cc	sf
=240	=240
2.dd	sf
4b-	.
=241	=241
4r	.
4g	.
4r	.
4e-	.
=242	=242
4r	.
(4b-	p
4a	.
4b-)	.
=243	=243
4r	.
(4cc	.
4b	.
4cc)	.
=244	=244
4r	.
!LO:TX:t=cresc.	!
(4dd	<
4cc	.
4b-)	.
=245	=245
4a	.
4aa	.
4r	.
4gg	.
=246	=246
4r	.
4ff	.
4r	.
4ee-	.
=247	=247
4r	.
4dd	.
4r	.
4b-	.
=248	=248
4a	p
4r	.
2r	.
=249	=249
4d 4b-	.
4r	.
2r	.
=250	=250
!LO:TX:t=cresc.	!
4e- 4cc	<
4r	.
2r	.
=251	=251
8b-L	.
8ff#	.
8gg	.
8aa	.
8bb-L	.
8bb	.
8ccc	.
8ddd-	.
=252	=252
[2ddd	f
8dddL	.
8bb-	.
8ddd	.
8bb-	.
=253	=253
1aat	sf
=254	=254
4bb-	.
4r	.
2r	.
=255	=255
1r	.
=256	=256
8b-L	p
(8f	.
8e	.
8f)	.
8dL	.
8f	.
8d	.
8f	.
=257	=257
8e-L	.
8f	.
8e-	.
8f	.
8e-L	.
8f	.
8e-	.
8f	.
=258	=258
8dL	.
8f	.
8d	.
8f	.
8dL	.
8f	.
(qqe-	.
8dL	.
16c	.
16d)	.
=259	=259
4e-	.
4c	.
4e-	.
4c	.
=260	=260
(2f	sf
4d)	.
(8dd	.
8b-)	.
=261	=261
8aL	.
8b-	.
8cc	.
8dd	.
8ee-L	.
8ff	.
8gg	.
8aa	.
=262	=262
8bb-L	f
8ff	.
8ff	.
8ee-	.
8ddL	.
8ff	.
8ff	.
8ee-	.
=263	=263
8ddL	.
8ff	.
8ff	.
8ee-	.
8ddL	.
8ff	.
8ff	.
8ee-	.
=264	=264
4dd	.
4r	.
4f 4cc	ff
4r	.
=265	=265
4B- 4f 4dd	.
4r	.
4r	.
(qqd	.
8c	.
16B	.
16c)	.
=266:|!	=266:|!
4B- 4f 4dd	.
4r	.
2r	.
=267	=267
*k[b-e-a-]	*
*E-:	*
*M2/4	*
!LO:TX:a:B:t=Adagio ma non troppo	!
8GL 8e-	p
8r	.
8B-L 8g	.
8r	.
=268	=268
8B-L 8a-	.
8r	.
8B-L 8f	.
8r	.
=269	=269
8e-L	.
8r	.
8fL	.
8r	.
=270	=270
16B-LL 16g	.
16r	.
16c 16a-	.
16r	.
16B- 16f	.
32b-	.
32b-	.
(32aLLL	.
32a-	.
32g)	.
32f	.
=271	=271
(16e-LL	p
16g)	.
(16g	.
16g)	.
(16gLL	.
16b-)	.
(16b-	.
16b-)	.
=272	=272
(16b-LL	.
16a-)	.
(16a-LL	.
16f)	.
(16fLL	.
16d)	.
(16dLL	.
16B-)	.
=273	=273
(16B-LL	.
16e-)	.
16e-LL	.
(64d	.
64e-	.
64f	.
64e-)	.
(16cLL	.
16a-)	.
16a-LL	.
(64g	.
64a-	.
64b-	.
64a-)	.
=274	=274
16gLL	.
(64a	.
64b-	.
64cc	.
64b-)	.
16fLL	.
(64a	.
64b-	.
64cc	.
64b-)	.
8e-L	.
8r	.
=275	=275
(16.a-LL	.
32g)	.
(16f	.
16e-)	.
8.dL	.
16e	.
=276	=276
(16fLL	.
16d)	.
(16e-	.
16e-)	.
(16.dLL	.
64e-	.
64f)	.
48gLLL	.
48a	.
48b-	.
48ccLLL	.
48dd	.
48ee-	.
=277	=277
(16.ffLL	.
32ee-)	.
(16dd	.
16cc)	.
(16b-LL	<
16cc-	.
16b-)	>
16b-	.
=278	=278
(8b-L	<
8ee-	>
8dd)	]
8r	.
=279	=279
2G 2e-	p
=280	=280
([4B- 4f	.
4B-) 4d	.
=281	=281
*^	*
[4e-	[8B-L	.
.	32.B-	.
.	64G	.
.	32.A-	.
.	64B-	.
8e-L	[8cL	.
8f	32.c	.
.	64A-	.
.	32.c	.
.	64A-	.
*v	*v	*
=282	=282
16e-LL	.
16r	.
16d	.
16r	.
8e-L	.
8r	.
=283	=283
2r	.
=284	=284
2r	.
=285	=285
!LO:TX:t=cresc.	!
(8fL	pp
16b-	.
16cc	.
16b-LL	.
16e-	.
16d-	.
16B-)	.
=286	=286
16B-LL	pp
16r	.
16A	.
16r	.
8B-L	.
16r	.
16B-	.
=287	=287
(8b-L	pp
16g-	.
16d	.
8e-L	.
16B-	.
16d	.
=288	=288
16e-LL	.
16f	.
16g-	.
16a	.
32b-LLL	.
32a	.
32b-	.
32a	.
32b-LLL	.
32dd-	.
32cc	.
32b-)	.
=289	=289
!LO:TX:t=cresc.	!
(32aLLL	.
32ee	.
32ff	.
32ee	.
32ffLLL	.
32gg-	.
32ff	.
32ee-)	.
(32dd-LLL	.
32cc	.
32b-	.
32a	.
32ccLLL	.
32b-	.
32a-	.
32g-)	.
=290	=290
(32g-LLL	p
32f	.
32e-	.
32d-)	.
(32d-LLL	.
32c	.
32e-	.
32A	.
8B-L)	.
8r	.
=291	=291
8r	.
8dd-	fp
[16dd-JJ	sf
32dd-LLL	.
32r	.
[16dd-	sf
32dd-	.
32r	.
=292	=292
8r	.
8b-	fp
!LO:TX:t=cresc.	!
[16b-LL	.
32b-	.
32r	.
16b-	.
32g	.
32r	.
=293	=293
(16a-LL	fp
16dd-	.
16cc-	.
16b-	.
16a-LL	.
16a-	.
16g-	.
16b-)	.
=294	=294
16cc-LL	pp
16r	.
16a-	.
16r	.
8g-L	.
8r	.
=295	=295
32r	.
(32cc	.
32dd-	.
32cc	.
32dd-LLL	.
32ee-	.
32dd-	.
32cc-)	.
(32cc-LLL	sf
32b-)	.
32a-	.
32a-	.
(32cc-LLL	sf
32b-)	.
32a-	.
32a-	.
=296	=296
32r	.
(32a	.
32b-	.
32a	.
32b-	.
32cc-LLL	.
32b-	.
32a-)	.
(32a-LLL	sf
32g-)	.
32f	.
32f	.
(32a-LLL	sf
32g-)	.
32g	.
32g	.
=297	=297
(32a-LLL	fp
32dd	.
32ee-	.
32ff-	.
32ee-LLL	.
32dd-	.
32cc-	.
32b-)	.
(32dd-LLL	.
32cc-	.
32b-	.
32a-)	.
(32a-LLL	.
32g-	.
32f	.
32e-)	.
=298	=298
16f-LL	pp
16r	.
16d	.
16r	.
8e-L	.
16r	.
16e-	.
=299	=299
(16ee-LL	pp
16b-	.
16cc-	.
16g	.
16a-LL	.
16f	.
16g-	.
16B-)	.
=300	=300
8c-L	.
8r	.
16cLL	pp
16r	.
16c	.
16r	.
=301	=301
8dL	.
8r	.
(16B-LL	.
16g-)	.
(16g-LL	.
64f	.
64g-	.
64a-	.
64g-)	.
=302	=302
16fLL	.
16r	.
8r	.
(16B-LL	.
16e-)	.
(16e-LL	.
64d	.
64e-	.
64f	.
64e-)	.
=303	=303
16dLL	.
16ff	.
16r	.
16ee-	.
16r	.
16dd	.
16r	.
16cc	.
=304	=304
32b-LLL	.
32r	.
32a-	.
32r	.
32g	.
32r	.
32f	.
32r	.
32e-	.
32r	.
32d	.
32r	.
32c	.
32r	.
32B-	.
32r	.
=305	=305
(8A-L	.
8B-	.
8cL)	.
(16B-	.
16A)	.
=306	=306
(8A-L	.
8B-	.
8cL)	.
(16B-	.
16A)	.
=307	=307
16A-LL	p
16A-	.
8r	.
16r	.
16a-	.
8r	.
=308	=308
16r	.
16a-	.
8r	.
16a-LL	.
16r	.
16a-	.
16r	.
=309	=309
16A-LL	.
16r	.
8r	.
4r	.
=310	=310
4r	.
16r	.
!LO:TX:t=cresc.	!
(16a-	.
16a-	.
16a-)	.
=311	=311
8B-L 8g	p
16r	.
(64a	.
64b-	.
64cc	.
64b-)	.
8e-L	.
8r	.
=312	=312
8r	.
16r	.
(64A	.
64B-	.
64c	.
64B-)	.
8aL	.
8r	.
=313	=313
8r	.
8G 8e-	.
8r	.
8f	.
=314	=314
16B-LL 16g	.
16r	.
16c 16a-	.
16r	.
16B-LL 16f	.
32b-	.
32b-	.
(32aLLL	.
32a-	.
32g)	.
32f	.
=315	=315
(16e-LL	p
16g)	.
(16g	.
16g)	.
(16gLL	.
16b-)	.
(16b-	.
16b-)	.
=316	=316
(16b-LL	.
16a-)	.
(16a-	.
16f)	.
(16fLL	.
16d)	.
(16d	.
16B-)	.
=317	=317
(16B-LL	.
16e-)	.
16e-LL	.
(64d	.
64e-	.
64f	.
64e-)	.
(16cLL	.
16a-)	.
16a-LL	.
(64g	.
64a-	.
64b-	.
64a-)	.
=318	=318
16gLL	.
(64a	.
64b-	.
64cc	.
64b-)	.
16fLL	.
(64a	.
64b-	.
64cc)	.
64b-	.
8e-J	.
8r	.
=319	=319
(16.a-LL	.
32g)	.
(16f	.
16e-)	.
(8.dL	.
16e)	.
=320	=320
(16fLL	.
16d)	.
(16e-	.
16e-)	.
(16.dLL	.
64e-	.
64f)	.
48gLLL	.
48a	.
48b-	.
48ccLLL	.
48dd	.
48ee-	.
=321	=321
(16.ffLL	.
32ee-)	.
(16dd	.
16cc)	.
(16b-LL	.
16cc-	.
16b-)	.
16b-	.
=322	=322
(8b-L	.
8ee-	>
8dd)	]
8r	.
=323	=323
2G 2e-	.
=324	=324
([4B- [4f	.
8B-L 8f	.
8d)	.
=325	=325
*^	*
([4e-	8B-L	.
.	8G	.
8e-L	4c	.
8f)	.	.
*v	*v	*
=326	=326
16r	.
16B- 16g	.
16r	.
16B- 16a-	.
8B-L 8g	.
16r	.
16b-	.
=327	=327
(16.ffLL	.
32ee-)	.
(16dd	.
16cc)	<
(8.b-L	.
16a-)	[
=328	=328
(16gLL	>
16a-	.
16g	.
16cc)	]
8fL	.
8r	.
=329	=329
(16.ee-LL	.
32dd)	.
(16cc	.
16b-)	.
8.a-L	.
16a-	sf
=330	=330
16a-LL	.
16a-	sf
16a-	.
16a-	sf
8a-L	.
8r	.
=331	=331
8gL	p
8r	.
8cL 8e-	ff
8r	.
=332	=332
16GLL	p
16r	.
16A-	.
16r	.
16G	.
16r	.
16r	pp
16G	.
=333	=333
(8gL	.
16e-	.
16B	.
8cL	.
16G	.
16B	.
=334	=334
16cLL	.
16d	.
16e-	.
16f#	.
8gL)	.
8r	.
=335	=335
8.GL 8.e	pp
16G 16f	sf
!LO:TX:t=cresc.	!
8.GL 8.e	.
16G 16f	sf
=336	=336
8.GL 8.e	.
16G 16f	sf
16GLL 16e	p
(16f	.
16f#	.
16g	.
=337	=337
16a-LL)	.
16b-	.
16a-	.
16a	.
16b-LL	.
16ee-	.
16dd	.
16ff)	.
=338	=338
8e-L 8b-	p
8r	.
8A-L 8e- 8cc	ff
8r	.
=339	=339
16GLL	pp
16r	.
16A-	.
16r	.
16G	.
16r	.
8r	.
=340	=340
8r	.
16r	.
(64a	.
64b-	.
64cc	.
64b-)	.
8e-L	.
8r	.
=341	=341
16B-LL 16a-	.
16r	.
16B- 16a-	.
16r	.
16B- 16g	.
16r	.
8r	.
=342	=342
8r	.
(64a	.
64b-	.
64a	.
64b-	.
64a	.
64b-	.
64cc	.
64b-)	.
8e-L	.
8r	.
=343	=343
16A-LL 16d	.
16r	.
16A- 16d	.
16r	.
16G 16e-	.
16r	.
8r	.
=344	=344
8.r	.
(16e-	.
8GL)	pp
8r	.
=345	=345
8r	.
!LO:TX:t=pizz.	!
8f 8dd	p
8e-L 8ee-	.
8r	.
=346!|:	=346!|:
*k[b-e-]	*
*B-:	*
*M3/4	*
!LO:TX:a:B:t=Allegro	!
!LO:TX:t=arco	!
4dd	p
[8ccL	sf
=347	=347
8ccL	.
8b-	.
8b-	.
8e-L	.
8d	.
[8e-	sf
=348	=348
8e-L	.
8d	.
8d	.
8cL	.
8d	.
[8f	sf
=349	=349
8fL	.
8b-	.
8b-	.
8a	.
8b-	.
8cc	.
=350	=350
4a	.
8r	.
4ee-	.
[8dd	sf
=351	=351
8ddL	.
8cc	.
8cc	.
4a	.
8b-	sf
=352	=352
4g	.
8r	.
4g	p
8g	.
=353	=353
8e-L	.
4e-	.
4e-	.
8e-	.
=354	=354
4d	.
8r	.
=:|!|:	=:|!|:
4d	f
[8c#L	.
=355	=355
8c#L	.
8d	.
8d	.
8dd	p
8dd	.
8g	.
=356	=356
4g	.
8r	.
4c	f
[8B	.
=357	=357
8BL	.
8c	.
8c	.
8ccL	p
8cc	.
8f	.
=358	=358
8fL	.
8b-	.
8b-	.
!LO:TX:t=cresc.	!
8b-	<
8b-	.
8g	.
=359	=359
8gL	.
8g	.
8g	.
8g	.
8g	.
8f	.
=360	=360
8gL	.
8g	.
8g	.
8B	.
8G	.
8c	.
=361	=361
4c	p
8r	.
4a	.
8cc	.
=362	=362
4b-	.
8r	.
4dd	.
8ee	.
=363	=363
4ff	.
8r	.
4aa	sf
8aa	.
=364	=364
4bb-	.
8r	.
4bb-	sf
8bb-	.
=365	=365
4aa	f
4a	.
4cc	.
=366	=366
2.r	.
=367	=367
4f	f
4A	.
4c	.
=368	=368
4r	.
8r	.
4ff	p
[8ee-	sf
=369	=369
8ee-L	.
8dd	.
8dd	.
8cc	.
8b-	.
[8cc	sf
=370	=370
8ccL	.
8b-	.
8b-	.
8a	.
8b-	.
[8cc	sf
=371	=371
8ccL	.
8dd	.
8dd	.
8cc	.
8dd	.
8ee-	.
=372	=372
4cc	.
8r	.
4gg	.
[8ff	sf
=373	=373
8ffL	.
8ee-	.
8ee-	.
4ee-	.
[8dd	sf
=374	=374
8ddL	.
8cc	.
8cc	.
4ee-	.
[8cc	sf
=375	=375
8ccL	.
4a	.
4f	.
[8b-	.
=376	=376
4b-	.
8r	.
4f	.
[8d	sf
=377	=377
8dL	.
8e-	.
8e-	.
4e-	.
[8c#	sf
=378	=378
8c#L	.
!LO:TX:t=cresc.	!
8d	<
8d	.
8fL 8dd	.
8f 8dd	.
8f 8dd	.
=379	=379
4f 4ee-	f
4e-	.
4c 4e-	.
=380	=380
4d	.
8r	.
4a-	p
[8f#	sf
=381	=381
8f#L	.
8g	.
8g	.
8r	.
4r	.
=382	=382
4r	.
8r	.
4b-	.
[8b-	sf
=383	=383
8b-L	.
8b-	.
8b-	.
4e	sf
[8g	.
=384	=384
8gL	.
8f	.
8f	.
4b-	sf
8b-	.
=385	=385
8b-L	p
8b-	.
8b-	.
8b-	.
8b-	.
8b-	.
=386	=386
!LO:TX:t=cresc.	!
8b-L	<
8b-	.
8b-	.
8b-	.
8b-	.
8b-	.
=387	=387
8b-L	.
8b-	.
8b-	.
8b-	.
8b-	.
8cc	.
=388	=388
8ccL	.
8dd	.
8dd	.
8ee-	.
8ee-	.
8ff	.
=389	=389
8b-L	.
8b-	.
8b-	.
8b-	.
8b-	.
8b-	.
=390	=390
8ee-L	ff
8ee-	.
8dd-	.
8dd-	.
8ee	.
8ee	.
=391	=391
4b- 4ff	.
4r	.
4r	.
=392	=392
4a	p
4r	.
4r	.
=393	=393
4b-	.
4r	.
4r	.
=394	=394
8r	.
8B-L	.
8B-	.
=395:|!	=395:|!
8r	.
8B-L	.
8B-	.
8r	.
8r	.
=!|:	=!|:
!LO:TX:t=TRIO	!
8r	.
=396	=396
2.r	.
=397	=397
4B-	f
[2ff	fp
=398	=398
4ff	.
4ff	.
4ff	.
=399	=399
4ff	.
4r	.
4r	.
=400	=400
2.r	.
=401	=401
4B-	f
[2bb-	fp
=402	=402
4bb-	.
4gg	.
4ee-	.
=403	=403
4dd	.
4r	.
8r	.
=:|!|:	=:|!|:
8r	.
=404	=404
2.r	.
=405	=405
4r	.
(4ee-	p
4gg-	.
=406	=406
4cc)	.
4r	.
4r	.
=407	=407
4r	.
(4ff	.
4dd)	.
=408	=408
2.r	.
=409	=409
4B-	f
[2bb-	fp
=410	=410
(4bb-	.
4gg	.
4ee-)	.
=411	=411
4dd	.
4r	.
8r	.
=412:|!	=412:|!
4dd	.
8r	.
4d-	ff
[8c	.
=413	=413
8cL	.
8B-	.
8B-L	.
4d-	sf
[8c	.
=414	=414
8cL	.
8B-	.
8B-L	.
4d-	sf
[8c	.
=415	=415
8cL	.
8B-	.
8B-	.
8d-	.
8c	.
!LO:TX:t=Scherzo D.C.	!
8A	.
=416	=416
4B-	.
8r	.
=417	=417
*M2/4	*
!LO:TX:t=Adagio	!
!LO:TX:t=LA MALINCONIA	!
4f	pp
!LO:TX:t=sempre	!
(8fL	.
8f)	.
=418	=418
4f	.
(8..dL	.
32f	.
=419	=419
8..b-L	.
32cc)	.
(8ddL	.
8dd)	.
=420	=420
(qqcc#	<
qqdd)	.
qqee-	.
2dd	.
=421	=421
4d	pp
(8dL	.
8d)	.
=422	=422
4d	.
(8..B-L	.
32c	.
=423	=423
8..dL	.
32e-)	.
(8fL	.
8f)	.
=424	=424
(qqe	.
qqf)	.
qqg	.
2f	.
=425	=425
4f	pp
!LO:TX:t=cresc.	!
(8fL	.
8f)	.
=426	=426
4f	.
(8..a-L	.
32g	.
=427	=427
8..fL	.
32e-)	.
(8dL	.
8d)	.
=428	=428
2d	pp
=429	=429
(qqf#	f
qqg)	.
qqa	.
2g	.
=430	=430
2ee-	p
=431	=431
(qqa	f
qqb)	.
qqcc	.
2b	.
=432	=432
2ff	p
=433	=433
4d#	pp
(8d#L	.
8d#)	.
=434	=434
4d#	.
(8..BL	.
32c#	.
=435	=435
8..d#L	.
32e)	.
(8f#L	.
8f#)	.
=436	=436
(qqe	.
qqf#)	.
qqg#	.
4.f#	.
8B	pp
=437	=437
(4g	.
4f#	.
=438	=438
4d	.
8c#L	.
8g#)	.
=439	=439
(4c#	.
4d#	.
=440	=440
4G#	.
8A#L)	.
8d#	.
=441	=441
!LO:TX:t=cresc.	!
(4cc-	<
4b-	.
=442	=442
4g-	.
4f	.
=443	=443
4d-	.
4c	.
=444	=444
4f	[
4e)	sf
=445	=445
4e-)	[
4g-	.
=446	=446
(qqc	f
qqd-)	.
qqe-	.
4d-	.
4a-	p
=447	=447
(qqd	f
qqe-)	.
qqf	.
4e-	.
4b-	p
=448	=448
(qqe-	f
qqf)	.
qqg	.
4f	.
(8ccL	p
8a)	.
=449	=449
(4dd	.
4ee	sf
=450	=450
4a	.
4b)	sf
=451	=451
(4e	p
4f	.
=452	=452
2f#)	.
=453	=453
4r	.
4e	pp
=454	=454
4r	.
!LO:TX:t=cresc.	!
4e-	<
=455	=455
4r	.
4a	.
=456	=456
4r	.
4ee-	.
=457	=457
4r	.
4cc	.
=458	=458
!LO:TX:t=attacca subito il Allegretto	!
4r	[
4e- 4ee-	ff
=459	=459
(4d-	p
8cL	.
8c)	.
=460	=460
4d-	pp
16cLL	.
==461	==461
*M3/8	*
!LO:TX:a:B:t=Allegretto quasi Allegro	!
16r	.
8r	.
=462	=462
8B-L 8d	p
4B- 4d	sf
=463	=463
8cL 8e-	.
4c 4e-	sf
=464	=464
(8cL	p
8B-	.
8A	.
=465	=465
8dL	.
8e-	.
8f)	.
=466	=466
(8gL	.
8c	.
8d	.
=467	=467
8e-L	.
8A	.
8B-)	.
=468	=468
(8GL	.
8e-	.
8g)	.
=469	=469
4c	.
8r	.
=470	=470
8B-L 8f	.
4B- 4f	sf
=471	=471
8cL 8f	.
4c 4f	sf
=472	=472
(8cL	p
8B-	.
8A	.
=473	=473
8dL	.
8e-	.
8f)	.
=474	=474
8gL	.
(8g	.
[8f)	.
=475	=475
(8fL	.
8e-	.
8d)	.
=476	=476
(8cL	.
8e-)	.
8e-	.
=477	=477
4d	.
8r	.
=478	=478
4.r	.
=479	=479
4.r	.
=480	=480
8e	.
8g	.
8e	.
=481	=481
4c	.
8r	.
=482	=482
4.r	.
=483	=483
4.r	.
=484	=484
8bL	.
8dd	.
8b	.
=485	=485
8gL	.
8r	.
(8dd	.
=486	=486
8ccL)	.
8r	.
(8dd	.
=487	=487
8ccL)	.
8r	.
8r	.
=488	=488
8r	.
8r	.
(8d	.
=489	=489
8cL)	.
8r	.
(8d	.
=490	=490
8cL)	.
8r	.
(8d	.
=491	=491
8cL)	.
8r	.
8r	.
=492	=492
!LO:TX:t=decresc	!
(16eLL	.
16d	.
16c	.
16d	.
16e	.
16f	.
=493	=493
16gLL	.
16f	.
16e	.
16f	.
16g	.
16a)	.
=494	=494
(16b-LL	p
16a	<
16cc	.
16b-	>
16a	.
16g)	.
=495	=495
4f	]
8r	.
=496	=496
(16b-LL	.
16a	.
16cc	.
16b-	.
16a	.
16g)	.
=497	=497
4f	.
8r	.
=498	=498
(16b-LL	.
16a	.
16cc	.
16b-	.
16a)	.
16g	.
=499	=499
8fL	.
8r	.
8d	.
=500	=500
8cL	.
8r	.
8B-	.
=501	=501
8AL	.
8r	.
8r	.
=502	=502
8eL	p
8r	.
(8ee	.
=503	=503
8ffL)	.
8r	.
(8f	.
=504	=504
8eL)	.
8r	.
(8ee	.
=505	=505
8ffL)	.
8r	.
(8f	.
=506	=506
8eL)	.
8r	.
(8ee	.
=507	=507
4ff)	.
8r	.
=508	=508
8r	.
!LO:TX:t=cresc.	!
8c	.
8f	.
=509	=509
[4.f	sf
=510	=510
4.f	]
=511	=511
(4a-	p
8cc)	.
=512	=512
(4b-	.
8cc)	.
=513	=513
!LO:TX:t=cresc.	!
(16ALL	<
16B-	.
16c	.
16d	.
16e	.
16f)	.
=514	=514
8gL	.
8g	.
8a	.
=515	=515
4.b-	p
=516	=516
(4.d 4.b	sf
=517	=517
4.f) 4.cc	p
=518	=518
4.f 4.dd	sf
=519	=519
(4f	p
8a)	.
=520	=520
(4g	.
8b-)	.
=521	=521
8cL	.
8c	.
8r	.
=522	=522
8r	.
8c	.
8r	.
=523	=523
8r	.
8e	.
8r	.
=524	=524
8r	.
8e	.
8r	.
=525	=525
!LO:TX:t=cresc.	!
8r	<
8e-	.
8r	.
=526	=526
8r	.
8e-	.
8r	.
=527	=527
8r	.
8d	.
8r	.
=528	=528
8r	.
8B- 8f	.
8r	.
=529	=529
8r	[
8e- 8a	f
8r	.
=530	=530
4.r	.
=531	=531
4.r	.
=532	=532
4.r	.
=533	=533
8B-L 8d	pp
4B- 4d	sf
=534	=534
8cL 8e-	.
4c 4e-	sf
=535	=535
(8cL	p
8B-	.
8A	.
=536	=536
8dL	.
8e-	.
8f)	.
=537	=537
(8gL	.
8c	.
8d	.
=538	=538
8e-L	.
8A	.
8B-)	.
=539	=539
(8GL	.
8e-	.
8g)	.
=540	=540
4c	.
8r	.
=541	=541
8B-L 8f	.
4B- 4f	sf
=542	=542
8cL 8f	.
4c 4f	sf
=543	=543
(8cL	p
8B-	.
8A	.
=544	=544
8dL	.
8e-	.
8f)	.
=545	=545
8gL	.
8g	.
[8f	.
=546	=546
(8fL	.
8e-	.
8d)	.
=547	=547
(8cL	.
8e-)	.
8e-	.
=548	=548
8dL	.
8r	.
8r	.
=549	=549
4.r	.
=550	=550
4.r	.
=551	=551
8eL	.
8g	.
8e	.
=552	=552
8.fJ	.
(16cLL	.
16cc	.
16b-)	.
=553	=553
(16b-LL	.
16a-)	.
16a-	.
16g	.
16f	.
16e-	.
=554	=554
8e-L	.
8d	.
8r	.
=555	=555
8b-L	.
8b-	.
8b-	.
=556	=556
8b-L	.
8r	.
(8ff	.
=557	=557
8ee-L)	.
8r	.
(8ff	.
=558	=558
8ee-L)	.
8r	.
8r	.
=559	=559
8r	.
8r	.
(8f	.
=560	=560
8e-L)	.
8r	.
(8ff	.
=561	=561
8gg)	.
8r	.
!LO:TX:t=cresc.	!
(8ff	<
=562	=562
8ggL)	.
8r	.
(8dd	.
=563	=563
16ee-LL)	[
(16g	f
16e-	.
16d	.
16c	.
16B-)	.
=564	=564
4A 4f	p
8r	.
=565	=565
(16aLL	.
16g	.
16f	.
16g	.
16a	.
16b-	.
=566	=566
16ccLL	.
16b-	.
16a	.
16b-	.
16cc	.
16dd	.
=567	=567
16ee-LL	<
16dd	.
16ff	[
16ee-	>
16dd	.
16cc)	]
=568	=568
4b-	.
8r	.
=569	=569
(16ee-LL	.
16dd	.
16ff	.
16ee-	.
16dd	.
16cc)	.
=570	=570
4b-	.
8r	.
=571	=571
(16ee-LL	.
16dd	.
16ff	.
16ee-	.
16dd	.
16cc)	.
=572	=572
8b-L	.
8r	.
8g	.
=573	=573
8fL	.
8r	.
8e-	.
=574	=574
8dL	.
8r	.
8r	.
=575	=575
8aL	p
8r	.
(8aa	.
=576	=576
8bb-L)	.
8r	.
(8b-	.
=577	=577
8aL)	.
8r	.
(8aa	.
=578	=578
8bb-L)	.
8r	.
(8b-	.
=579	=579
8aL)	.
8r	.
(8aa	.
=580	=580
8bb-L)	.
8r	.
8r	.
=581	=581
8r	.
8r	.
8b-	.
=582	=582
4.B-	sf
=583	=583
4.b-	.
=584	=584
(4b-	p
8dd-)	.
=585	=585
(4a	.
8cc)	.
=586	=586
!LO:TX:t=cresc.	!
16dLL	.
(16e-	.
16f	.
16g	.
16a	.
16b-)	.
=587	=587
8ccL	.
8cc	.
8dd	.
=588	=588
[4.ee-	.
=589	=589
(8ee-L	p
8cc	.
8a-	.
=590	=590
8dd-L	.
8a-	.
[8dd-)	.
=591	=591
(8dd-L	.
8b-	.
8g-	.
=592	=592
8cc-L	.
8g-)	.
8cc-	.
=593	=593
(8aL	.
8cc	.
[8f)	.
=594	=594
!LO:TX:t=cresc.	!
(8fL	.
8b-)	.
8b-	.
=595	=595
8b-L	.
8b-	.
8b-	.
=596	=596
(16b-LL	.
16dd)	.
16r	.
(16dd	.
16b-	.
16dd)	.
=597	=597
(16aLL	.
16cc)	.
16r	.
(16cc	.
16a	.
16cc)	.
=598	=598
8b-L	.
8B- 8f	p
8r	.
=599	=599
8r	.
8B- 8f	.
8r	.
=600	=600
8r	.
8c 8f	.
8r	.
=601	=601
8r	.
8c 8f	.
8r	.
=602	=602
8r	.
!LO:TX:t=cresc.	!
8B- 8f	<
8r	.
=603	=603
8r	.
8B- 8f	.
8r	.
=604	=604
8r	.
8B- 8g	.
8r	.
=605	=605
8r	.
8e- 8b-	.
8r	.
=606	=606
8r	.
8f 8b-	.
8r	.
=607	=607
8r	.
8f 8b-	.
8r	.
=608	=608
8r	.
8e- 8b-	.
8r	.
=609	=609
8r	.
8e- 8cc	.
8r	.
=610	=610
8r	[
[4e [4dd-	ff
=611	=611
4.e 4.dd-	.
=612||	=612||
*M2/4	*
!LO:TX:t=Tempo I.	!
4b-	pp
(8b-L	.
8b-)	.
=613	=613
4b-	.
(8..fL	.
32a	.
=614	=614
8..b-L	.
32cc)	.
(8ddL	.
8dd)	.
=615	=615
(qqcc#	.
qqdd)	.
qqee-	.
2dd	.
=616	=616
4B- 4d	pp
(8B-L 8d	.
8B-) 8d	.
=617	=617
4B 4d	.
(8..BL	.
32c	.
=618	=618
8..dL	.
32e-)	.
(8fL	.
8f)	.
=619	=619
2f#	pp
=620	=620
(qqff#	f
qqgg#)	.
qqaa	.
2gg#	.
=621	=621
[4g#	pp
16g#LL	.
!LO:TX:a:B:t=Allegretto	!
16r	.
8r	.
=622||	=622||
*M3/8	*
8cL 8e	.
4c 4e	sf
=623	=623
8dL 8e	.
4d 4e	sf
=624	=624
8eL	p
8e	.
8e	.
=625	=625
8eL	.
8r	.
8r	.
=626	=626
4.r	.
=627||	=627||
*M2/4	*
!LO:TX:t=cresc.	!
!LO:TX:t=Adagio	!
4A	.
(8AL	.
8A)	.
=628	=628
(qqG#	p
qqA)	.
qqB	.
[4A	.
16ALL	.
!LO:TX:a:B:t=Allegretto	!
16r	.
8r	.
=629||	=629||
*M3/8	*
8BL 8d	.
4B 4d	sf
=630	=630
8cL 8d	.
4c 4d	sf
=631	=631
8cL 8d	p
8c 8d	.
8c 8d	.
=632	=632
8r	.
8B 8d	.
8r	.
=633	=633
8r	.
8G 8f	.
8r	.
=634	=634
8r	.
8G 8e-	.
8r	.
=635	=635
8r	.
8c 8g	.
8r	.
=636	=636
8r	.
8c 8f	pp
8r	.
=637	=637
4.r	.
=638	=638
8B-L 8d	.
4B- 4d	sf
=639	=639
8cL 8e-	.
4c 4e-	sf
=640	=640
(8cL	p
8B-	.
8A	.
=641	=641
8dL	.
8e-	.
8f)	.
=642	=642
(8gL	.
8c	.
8d	.
=643	=643
8e-L	.
8A	.
8B-)	.
=644	=644
(8GL	.
8e-	.
8g)	.
=645	=645
4c	.
8r	.
=646	=646
4.r	.
=647	=647
4.r	.
=648	=648
(8ccL	sf
16b-	.
16a	.
16g	.
16f)	.
=649	=649
!LO:TX:t=cresc.	!
(16a-LL	.
16d	.
16e-	.
16f	.
16g	.
16a-)	.
=650	=650
(8gL	f
8c	.
8d	.
=651	=651
8e-L	.
8a	.
8b-)	.
=652	=652
(8gL	.
8e-)	.
8e-	.
=653	=653
8dL	.
8r	.
8r	.
=654	=654
4.r	.
=655	=655
8r	.
16r	.
(16e-	p
16ee-	.
16dd)	.
=656	=656
16ddLL	.
16cc	.
16cc	.
16b-	.
16a	.
16g	.
=657	=657
8fL	.
8r	.
8r	.
=658	=658
8r	.
8r	.
(8ff	.
=659	=659
8ggL)	.
8g	.
8g	.
=660	=660
!LO:TX:t=cresc.	!
(4a	.
8e-	.
=661	=661
4d	.
8f)	.
=662	=662
(16gLL	.
16c)	.
(8d	.
8e-)	.
=663	=663
8dL	.
8r	.
8r	.
=664	=664
8r	.
8r	.
(8d	p
=665	=665
8e-L)	.
8a	.
8cc	.
=666	=666
8ee-L	.
8r	.
(8c	.
=667	=667
8fL)	.
16r	.
(16f	.
16ff	.
16ee-)	.
=668	=668
(16ee-LL	.
16dd)	.
16dd	.
16cc	.
16b-	.
16a-	.
=669	=669
8gL	.
8b-	.
8ee-	.
=670	=670
8ggL	.
8cc	.
8cc	.
=671	=671
8ccL	.
8a	.
8a	.
=672	=672
8b-L	.
8f	.
8f	.
=673	=673
!LO:TX:t=cresc.	!
(16gLL	.
16B-)	.
16r	.
(16B-	.
16g	.
16B-)	.
=674	=674
(16cLL	.
16B-)	.
16r	.
(16B-	.
16c	.
16B-)	.
=675	=675
(16dLL	.
16B-)	.
16r	.
(16B-	.
16d	.
16B-)	.
=676	=676
(16e-LL	.
16A)	.
16r	.
(16A	.
16e-	.
16A)	.
=677	=677
8dL	.
16r	.
(16f	p
16dd	.
16cc)	.
=678	=678
8b-L	.
16r	.
(16f	.
16dd	.
16b-)	.
=679	=679
8aL	.
4e-	.
=680	=680
8r	.
(4e-	.
=681	=681
8dL)	.
[4f	.
=682	=682
8fL	.
[4f	.
=683	=683
8fL	.
16r	.
(16f	.
16a	.
16b-)	.
=684	=684
8ccL	.
16r	.
!LO:TX:t=decresc	!
(16f	.
16a	.
16cc	.
=685	=685
8ee-L)	.
8r	.
8r	.
=686	=686
8r	.
16r	.
16e-	pp
16e-	.
16e-	.
=687	=687
[4.e-	.
=688	=688
8.e-L	.
!LO:TX:a:B:t=poco Adagio	!
16r	.
8r	.
=689	=689
4.d	.
=690	=690
8.e-L	.
16r	.
8r	.
=691	=691
4.c 4.e-	.
=692	=692
8.dL	.
!LO:TX:a:B:t=Prestissimo	!
16r	.
8r	.
=693	=693
4B- 4d	p
8r	.
=694	=694
4c 4e-	.
8r	.
=695	=695
4c 4e-	.
8r	.
=696	=696
4B- 4f	.
8r	.
=697	=697
!LO:TX:t=cresc.	!
4.a-	<
=698	=698
8gL	.
8f	.
8e-	.
=699	=699
8dL	.
8e-	.
8e	.
=700	=700
8fL	.
8g	.
8a	.
=701	=701
(4b-	.
8a-)	.
=702	=702
8gL	.
8f	.
8e-	.
=703	=703
8dL	.
8e-	.
8e	.
=704	=704
8fL	[
8g	.
8a	.
=705	=705
(4b-	f
8a-)	.
=706	=706
8gL	.
8f	.
8e-	.
=707	=707
8dL	.
8e-	.
8e	.
=708	=708
8fL	.
8g	.
8a	.
=709	=709
16b-LL	ff
16dd	.
16cc	.
16b-	.
16a	.
16g	.
=710	=710
16fLL	.
16g	.
16f	.
16e-	.
16d	.
16c	.
=711	=711
8B-L	.
8r	.
8r	.
=712	=712
8fL 8ee-	.
8r	.
8r	.
=713	=713
8B-L 8f 8dd	.
16r	.
==	==
*-	*-
